X: 23
T:Rakes of Mallow, The
M:2/4
L:1/8
R:Northern Polka
K:G
GB GB|GB c/2B/2A/2G/2|FA FA|FA d/2c/2B/2A/2|!
GB GB|GB d>B|c/2B/2A/2G/2 F/2G/2A/2c/2|1BG GD:|2BG G2|!
|:gf/2e/2 dc|Bc d2|gf/2e/2 dc|Bc A2|!
gf/2e/2 dc|B/2A/2B/2c/2 d>B|c/2B/2A/2G/2 F/2G/2A/2c/2|1BG G2:|2BG GD|]!
